X: 561
T: Catalina
B: good tune book
B: tunes
M:3/4
R: waltz
Q: 1/4=100
K:Dmajor
V:1 
|D4 F2|E4 FG|A4 F2|D2 d3 c|B4 AG|FG A3 B|AG F2 G2|E6|
 A3 BAF|G2 F2 E2|D2 d3 A|B2 d4|A3 BAB|A2 F2 G2|E4 D2|D6||
 A,2 G3 F|E6|A,2 G3 F|G2 F2 E2|D2 A3 G|F6|D3 CDE|F2 G2 A2|
 B2 d3 c|B6|B2 d3 e|d2 c2 B2|A2 d3 B|A3 BAF|A2 d3 B|A2 F2 G2|
 A,2 G3 F|E6|A,2 G3 F|G2 F2 E2|F4 EF|G4 FG|A3 FAB|=c2 B2 A2|
 B2 d3 c|B6|B2 d3 e|d2 c2 B2|A2 d3 B|A3 BAF|A2 d3 B|A2 F2 G2|
 A,2 G3 F|E6|A,2 G3 F|G2 F2 E2||"^exc last time" D6|E6|F6|G2 F2 E2||
 "*last time" [2 "^last" D4 F2|E4 FG|A4 F2|D2 d3 c|B4 AG|FG A3 B|AG F2 G2|E6|
 A3 BAF|G2 F2 E2|D2 d3 A|B2 d4|A3 BAB|A2 F2 G2|E4 D2|D6 ]|
% abcbook-tune_id 63dce24e380ba10f18cbfd25
% abcbook-tune_composer_id 
% abcbook-link-0 https://www.youtube.com/watch?v=T8sSVWRX1Po
% abcbook-link-title-0 Blazin&#39; Fiddles - Catalina
% abcbook-boost 0
% abcbook-difficulty 0
% abcbook-tags good tune book
% abcbook-tablature 
% abcbook-transpose 
% abcbook-tuning 
% abcbook-lastupdated 1675432323006
% abcbook-soundfonts 
% abcbook-repeats 1


